svgs/sharp-light/camera-viewfinder.svg

<svg xmlns="http://www.w3.org/2000/svg" viewBox="0 0 512 512"><!--! Font Awesome Pro 6.6.0 by @fontawesome - https://fontawesome.com License - https://fontawesome.com/license (Commercial License) Copyright 2024 Fonticons, Inc. --><path d="M0 0L16 0 144 0l16 0 0 32-16 0L32 32l0 112 0 16L0 160l0-16L0 16 0 0zM320 96l12 32 52 0 32 0 0 32 0 192 0 32-32 0-256 0-32 0 0-32 0-192 0-32 32 0 52 0 12-32 128 0zm12 64l-22.2 0L302 139.2 297.8 128l-83.6 0L210 139.2 202.2 160 180 160l-52 0 0 192 256 0 0-192-52 0zm-44 96a32 32 0 1 0 -64 0 32 32 0 1 0 64 0zm-96 0a64 64 0 1 1 128 0 64 64 0 1 1 -128 0zM496 0l16 0 0 16 0 128 0 16-32 0 0-16 0-112L368 32l-16 0 0-32 16 0L496 0zM0 512l0-16L0 368l0-16 32 0 0 16 0 112 112 0 16 0 0 32-16 0L16 512 0 512zm496 0l-128 0-16 0 0-32 16 0 112 0 0-112 0-16 32 0 0 16 0 128 0 16-16 0z"/></svg>

<svg xmlns="http://www.w3.org/2000/svg" viewBox="0 0 512 512"><!--! Font Awesome Pro 6.4.2 by @fontawesome - https://fontawesome.com License - https://fontawesome.com/license (Commercial License) Copyright 2023 Fonticons, Inc. --><path d="M0 0H16 144h16V32H144 32V144v16H0V144 16 0zM320 96l12 32h52 32v32V352v32H384 128 96V352 160 128h32 52l12-32H320zm12 64H309.8L302 139.2 297.8 128H214.2L210 139.2 202.2 160H180 128V352H384V160H332zm-44 96a32 32 0 1 0 -64 0 32 32 0 1 0 64 0zm-96 0a64 64 0 1 1 128 0 64 64 0 1 1 -128 0zM496 0h16V16 144v16H480V144 32H368 352V0h16H496zM0 512V496 368 352H32v16V480H144h16v32H144 16 0zm496 0H368 352V480h16H480V368 352h32v16V496v16H496z"/></svg>
